X:5108
T:Pidgeon on the Gate, The
O:england
M:C|
R:Reel
K:G
gf|e3/2A/2 ~A2 egfg|e3/2A/2 ~A2 e2 dB| G2BG dGBG|Bdef g2fg|\
e3/2A/2 ~A2 egfg|e3/2A/2 ~A2 e2 dB|GABd g2ga|bagb a2::\
ag|eaag abag|eaab c'bag|eggf gage|dega bgag|\
eaag abag|eaab c'bag|edef gage|dBGB A2:|


